X:115
T:Marcho d?u vilage
O:France
A:Provence
C:Trad.
R:Marche
Z:Transcrit par Michel Bellon 2004-02-19
S:Carnet du tambourinaire Ginas (1924)
Z:Transcrit et/ou corrig? par Michel BELLON - 2005-03-06
Z:Pour toute observation mailto:galouvielle@free.fr
M:C
L:1/8
K:Bb
V:Galoubet
d4 d>e f>g | f3 (e/d/) c2z2 | e4 e>f g>a | b3 a/g/ f2f2 | g2f2e2d2 |1 d4c2z2 :|2 d4c2F2 | A2c2f2a2 | bgf=e f2F2 | 
A2c2f2a2 | bgf=e f2f2 | (d2e2) (c2f2) | d2e2 c>f g>e | d4 c4 |1 B2B>BB2F2 :|2 B2 b>b b2z2 !fine! |]
<end>
<start>
